!!!OTL: Eine Hand voll Erde.
!!!OTL-incipit: EINE HAND VOLL ERDE
!!!COM: Tuerk
!!!ARE: Europa, Mitteleuropa, Deutschland
!!!SCT: F1067
!!!TXL: @@DE
!!!YEM: Copyright 1995, estate of Helmut Schaffrath.
**kern	**text
*ICvox	*
*clefG2	*
*M2/4	*
*k[b-]	*
*F:	*
=1	=1
!LO:TX:a:t= Vierstimmig.	!
{8a	1._Ei-
8a	-ne
8b-/	Hand
8b-/	voll
=2	=2
4cc^/	Er-
8a	-de
8r}	.
=3	=3
{8b-/	deckt
8b-/	mich
8a	ein-
8a	-ſtens
=4	=4
(>4a	ʒu,
8g)	.
8r}	.
=5	=5
{8a	wenn
8a	ich
8b-/	mü-
8b-/	-de
=6	=6
4cc^/	wer-
8dd/	-de,
8r}	.
=7	=7
{8cc/	geh'
8cc/	ʒu
8e	mei-
8e	-ner
=8	=8
4.f	Ruh',
8r}	.
=9	=9
{8a	dann
8a	ſtört
8b-/	mich
8b-/	kein
=10	=10
4cc/	Kummer,
8a	.
8r}	.
=11	=11
{8b-/	ſanft
8b-/	in
8a	küh-
8a	-ler
=12	=12
(>4a	Gruft
8g)	.
8r}	.
=13	=13
{8a	ſchlaf'
8a	ich
8b-/	To-
8b-/	-des-
=14	=14
(>8cc/	-ſchlum-
4ff/)	.
8dd/}	-mer
=15	=15
{8cc/	bis
8cc/	Je-
8e	-ho-
8e	-va
=16	=16
4f	ruft.
4r}	.
==	==
!!!AGN: Trauer -, Bregraebnis -, Trost - Lied
!!!ONB: ESAC (Essen Associative Code) Database: FINK
!!!AMT: simple duple
!!!AIN: vox
!!!EED: Helmut Schaffrath
!!!EEV: 1.0
!!!RDF**kern: > = above
!!!GTL: Trauer- Begraebniss- und Trostlieder
!!!URL-scan: https://www.digitale-sammlungen.de/en/view/bsb11144622?page=675
!!!ENC: Anna Maria Matuszewska
!!!EEV: 2024/08/09
*-	*-
